svg/Pictogram/pictograms-nps-water-personal_watercraft.svg

<svg xmlns="http://www.w3.org/2000/svg" viewBox="0 0 256 256"><path d="m0 0c-.541 0-.981-.44-.981-.981v-7.528c0-.541.44-.981.981-.981h7.526c.541 0 .982.44.982.981v7.528c0 .541-.441.981-.982.981h-7.526" fill="#fff" transform="matrix(25.88211 0 0-25.88211 30.583 5.192)"/><path d="m0 0c.652 0 1.182.529 1.182 1.182v7.527c0 .652-.53 1.182-1.182 1.182h-7.526c-.653 0-1.182-.53-1.182-1.182v-7.527c0-.653.529-1.182 1.182-1.182h7.526" transform="matrix(25.88211 0 0-25.88211 225.38 256)"/><g fill="#fff"><path d="m0 0c.363.043.621.373.578.736-.043.364-.373.621-.736.578-.363-.044-.62-.373-.577-.736.045-.363.372-.621.735-.578" transform="matrix(25.88211 0 0-25.88211 93.19 73.36)"/><path d="m0 0c-.035.018-2.734 1.389-2.734 1.389l-.686.882-.008.001c-.093.086-.238.078-.324-.015v-.002c-.061-.071-.072-.174-.025-.258l.507-.656.002-.006-.421-.967-1.12.279-.048.401.919.111c.042.002.084.014.124.035.152.08.21.27.13.422-.062.117-.187.18-.31.166l-.938-.113-.084.695c-.045.361-.375.621-.736.578-.362-.045-.622-.375-.579-.738l.195-1.608c.024-.205.146-.382.308-.486l-1.472-.176-.459-1.136c.018.007.037.009.053.017.189.088.4.135.607.135.207 0 .416-.047.604-.133.119-.055.25-.082.377-.082.128 0 .257.027.374.08.189.088.398.135.607.135.207 0 .416-.047.602-.133.121-.055.252-.082.379-.082.129 0 .256.027.375.08.189.088.4.135.607.135.207 0 .416-.047.602-.133.045-.019.093-.033.142-.047.752.198 2.084.578 2.444.901.105.093.125.252-.014.32" transform="matrix(25.88211 0 0-25.88211 234.08 154.14)"/><path d="m0 0c.172 0 .338.039.484.105.151.071.321.112.498.112.178 0 .346-.041.498-.112.147-.066.311-.105.483-.105.171 0 .335.039.483.105.151.071.321.112.498.112.176 0 .346-.041.498-.112.147-.066.311-.105.483-.105.172 0 .336.039.484.105.151.071.32.112.498.112.176 0 .346-.041.496-.112.149-.066.313-.105.485-.105.172 0 .336.039.482.105.152.071.322.112.498.112.178 0 .348-.041.498-.112.147-.066.313-.105.485-.105v.725c-.172 0-.338.039-.485.105-.15.07-.32.109-.498.109-.176 0-.346-.039-.498-.109-.146-.066-.31-.105-.482-.105-.172 0-.336.039-.485.105-.15.07-.32.109-.496.109-.178 0-.347-.039-.498-.109-.148-.066-.312-.105-.484-.105-.172 0-.336.039-.483.105-.152.07-.322.109-.498.109-.177 0-.347-.039-.498-.109-.148-.066-.312-.105-.483-.105-.172 0-.336.039-.483.105-.152.07-.32.109-.498.109-.177 0-.347-.039-.498-.109-.146-.066-.312-.105-.484-.105v-.725" transform="matrix(25.88211 0 0-25.88211 24.922 221.02)"/></g></svg>

<?xml version="1.0" encoding="UTF-8" standalone="no"?>
<!-- Created with Inkscape (http://www.inkscape.org/) -->
<svg
   xmlns:dc="http://purl.org/dc/elements/1.1/"
   xmlns:cc="http://creativecommons.org/ns#"
   xmlns:rdf="http://www.w3.org/1999/02/22-rdf-syntax-ns#"
   xmlns:svg="http://www.w3.org/2000/svg"
   xmlns="http://www.w3.org/2000/svg"
   xmlns:sodipodi="http://sodipodi.sourceforge.net/DTD/sodipodi-0.dtd"
   xmlns:inkscape="http://www.inkscape.org/namespaces/inkscape"
   width="256"
   height="256"
   id="svg5294"
   sodipodi:version="0.32"
   inkscape:version="0.46"
   version="1.0"
   sodipodi:docname="pictograms-nps-water-personal_watercraft-2.svg"
   inkscape:output_extension="org.inkscape.output.svg.inkscape">
  <defs
     id="defs5296">
    <inkscape:perspective
       sodipodi:type="inkscape:persp3d"
       inkscape:vp_x="0 : 526.18109 : 1"
       inkscape:vp_y="0 : 1000 : 0"
       inkscape:vp_z="744.09448 : 526.18109 : 1"
       inkscape:persp3d-origin="372.04724 : 350.78739 : 1"
       id="perspective5302" />
  </defs>
  <sodipodi:namedview
     id="base"
     pagecolor="#ffffff"
     bordercolor="#666666"
     borderopacity="1.0"
     gridtolerance="10000"
     guidetolerance="10"
     objecttolerance="10"
     inkscape:pageopacity="0.0"
     inkscape:pageshadow="2"
     inkscape:zoom="1.4"
     inkscape:cx="124.57192"
     inkscape:cy="112.12174"
     inkscape:document-units="px"
     inkscape:current-layer="layer1"
     showgrid="false"
     inkscape:window-width="747"
     inkscape:window-height="674"
     inkscape:window-x="0"
     inkscape:window-y="309" />
  <metadata
     id="metadata5299">
    <rdf:RDF>
      <cc:Work
         rdf:about="">
        <dc:format>image/svg+xml</dc:format>
        <dc:type
           rdf:resource="http://purl.org/dc/dcmitype/StillImage" />
      </cc:Work>
    </rdf:RDF>
  </metadata>
  <g
     inkscape:label="Layer 1"
     inkscape:groupmode="layer"
     id="layer1">
    <g
       id="g6330"
       transform="matrix(25.882115,0,0,-25.882115,30.582514,5.1921593)">
      <path
         d="M 0,0 C -0.541,0 -0.981,-0.44 -0.981,-0.981 L -0.981,-8.509 C -0.981,-9.05 -0.541,-9.49 0,-9.49 L 7.526,-9.49 C 8.067,-9.49 8.508,-9.05 8.508,-8.509 L 8.508,-0.981 C 8.508,-0.44 8.067,0 7.526,0 L 0,0 z"
         style="fill:#ffffff;fill-opacity:1;fill-rule:nonzero;stroke:none"
         id="path6332" />
    </g>
    <g
       id="g6334"
       transform="matrix(25.882115,0,0,-25.882115,225.38146,256)">
      <path
         d="M 0,0 C 0.652,0 1.182,0.529 1.182,1.182 L 1.182,8.709 C 1.182,9.361 0.652,9.891 0,9.891 L -7.526,9.891 C -8.179,9.891 -8.708,9.361 -8.708,8.709 L -8.708,1.182 C -8.708,0.529 -8.179,0 -7.526,0 L 0,0 z"
         style="fill:#000000;fill-opacity:1;fill-rule:nonzero;stroke:none"
         id="path6336" />
    </g>
    <g
       id="g6338"
       transform="matrix(25.882115,0,0,-25.882115,93.191351,73.360681)">
      <path
         d="M 0,0 C 0.363,0.043 0.621,0.373 0.578,0.736 C 0.535,1.1 0.205,1.357 -0.158,1.314 C -0.521,1.27 -0.778,0.941 -0.735,0.578 C -0.69,0.215 -0.363,-0.043 0,0"
         style="fill:#ffffff;fill-opacity:1;fill-rule:nonzero;stroke:none"
         id="path6340" />
    </g>
    <g
       id="g6342"
       transform="matrix(25.882115,0,0,-25.882115,234.07557,154.14104)">
      <path
         d="M 0,0 C -0.035,0.018 -2.734,1.389 -2.734,1.389 L -3.42,2.271 L -3.428,2.281 C -3.521,2.367 -3.666,2.359 -3.752,2.266 L -3.752,2.264 C -3.813,2.193 -3.824,2.09 -3.777,2.006 L -3.27,1.35 L -3.268,1.344 L -3.689,0.377 L -4.809,0.656 L -4.857,1.057 L -3.938,1.168 C -3.896,1.17 -3.854,1.182 -3.814,1.203 C -3.662,1.283 -3.604,1.473 -3.684,1.625 C -3.746,1.742 -3.871,1.805 -3.994,1.791 L -4.932,1.678 L -5.016,2.373 C -5.061,2.734 -5.391,2.994 -5.752,2.951 C -6.114,2.906 -6.374,2.576 -6.331,2.213 L -6.136,0.605 C -6.112,0.4 -5.99,0.223 -5.828,0.119 L -7.3,-0.057 L -7.759,-1.193 C -7.741,-1.186 -7.722,-1.184 -7.706,-1.176 C -7.517,-1.088 -7.306,-1.041 -7.099,-1.041 C -6.892,-1.041 -6.683,-1.088 -6.495,-1.174 C -6.376,-1.229 -6.245,-1.256 -6.118,-1.256 C -5.99,-1.256 -5.861,-1.229 -5.744,-1.176 C -5.555,-1.088 -5.346,-1.041 -5.137,-1.041 C -4.93,-1.041 -4.721,-1.088 -4.535,-1.174 C -4.414,-1.229 -4.283,-1.256 -4.156,-1.256 C -4.027,-1.256 -3.9,-1.229 -3.781,-1.176 C -3.592,-1.088 -3.381,-1.041 -3.174,-1.041 C -2.967,-1.041 -2.758,-1.088 -2.572,-1.174 C -2.527,-1.193 -2.479,-1.207 -2.43,-1.221 C -1.678,-1.023 -0.346,-0.643 0.014,-0.32 C 0.119,-0.227 0.139,-0.068 0,0"
         style="fill:#ffffff;fill-opacity:1;fill-rule:nonzero;stroke:none"
         id="path6344" />
    </g>
    <g
       id="g6346"
       transform="matrix(25.882115,0,0,-25.882115,24.921785,221.02043)">
      <path
         d="M 0,0 C 0.172,0 0.338,0.039 0.484,0.105 C 0.635,0.176 0.805,0.217 0.982,0.217 C 1.16,0.217 1.328,0.176 1.48,0.105 C 1.627,0.039 1.791,0 1.963,0 C 2.134,0 2.298,0.039 2.446,0.105 C 2.597,0.176 2.767,0.217 2.944,0.217 C 3.12,0.217 3.29,0.176 3.442,0.105 C 3.589,0.039 3.753,0 3.925,0 C 4.097,0 4.261,0.039 4.409,0.105 C 4.56,0.176 4.729,0.217 4.907,0.217 C 5.083,0.217 5.253,0.176 5.403,0.105 C 5.552,0.039 5.716,0 5.888,0 C 6.06,0 6.224,0.039 6.37,0.105 C 6.522,0.176 6.692,0.217 6.868,0.217 C 7.046,0.217 7.216,0.176 7.366,0.105 C 7.513,0.039 7.679,0 7.851,0 L 7.851,0.725 C 7.679,0.725 7.513,0.764 7.366,0.83 C 7.216,0.9 7.046,0.939 6.868,0.939 C 6.692,0.939 6.522,0.9 6.37,0.83 C 6.224,0.764 6.06,0.725 5.888,0.725 C 5.716,0.725 5.552,0.764 5.403,0.83 C 5.253,0.9 5.083,0.939 4.907,0.939 C 4.729,0.939 4.56,0.9 4.409,0.83 C 4.261,0.764 4.097,0.725 3.925,0.725 C 3.753,0.725 3.589,0.764 3.442,0.83 C 3.29,0.9 3.12,0.939 2.944,0.939 C 2.767,0.939 2.597,0.9 2.446,0.83 C 2.298,0.764 2.134,0.725 1.963,0.725 C 1.791,0.725 1.627,0.764 1.48,0.83 C 1.328,0.9 1.16,0.939 0.982,0.939 C 0.805,0.939 0.635,0.9 0.484,0.83 C 0.338,0.764 0.172,0.725 0,0.725 L 0,0 z"
         style="fill:#ffffff;fill-opacity:1;fill-rule:nonzero;stroke:none"
         id="path6348" />
    </g>
  </g>
</svg>
